X:400d
T:Amém sétuplo
M:4/4
L:1/2
K:A
"D" A A | "E7" A G | "A" c c | "E" B/2 A/2 "Em" B/2 c/2 | "Bm" d "A" c | "E" B e |
w:A- mém, A- mém, A- ~ ~ ~ ~ ~ ~ ~ mém, A-
"A" e/2 d/2 c | "E" B A | G F | "A" E2 | "E7" E2 | "A" E2 |]
w:~ ~ ~ mém, A- ~ ~ mém, A- mém.